!!!OTL: Rujin shanqu dabutong
!!!ARE: Asia, China,ÿHubei Zaoyang
!! I, 392
!!!SCT: C2144
!!!YEM: Copyright 1995, estate of Helmut Schaffrath.
**kern
*ICvox
*Ivox
*M2/4
*k[f#c#]
*D:
{8a
8dd
8dd
8b
=1
8a
8dd
8dd
8b
=2
4.a
8b}
=3
{8dd
4dd
16b
16a
=4
8a
8a
8e
8d
=5
16e
16a
4c#
8e
=6
16e
16a
4.c#}
=7
{8e
16e
16a
8e
8e
=8
4a
8d
8e
=9
4a
8dd
8f#
=10
8d
4.e}
=11
{4e
4a
=12
4dd
8f#
8e
=13
4dd
8ee
16ee
16dd
=14
8ee
8a
4dd}
==
!!!AGN: Xiaodiao, Tiange, Hayangcaoge
!!!ONB: ESAC (Essen Associative Code) Database: SENGANSU
!!!AMT: simple duple
!!!AIN: vox
!!!EED: Helmut Schaffrath
!!!EEV: 1.0
*-
